X:159
T:Rory O'More (j)
B:NFID.159c
159rory
S:F&MB
L:1/8
M:6/8
R:jig
Q:320
K:G
g2e|:dBG BAG|dBG g2e|dBG BAG|FAA ABc|
dBG BAG|Bdd edc|Bd^c def|1 gfa gfe:|2 gdB dBd||
g2e dcB|cBA BGE|DGG FAF|GBd e2f|
gfe dcB|cBA BGE|1 DGG AGA|BGG GBd:|2 DGG FAF|GBd gfe||

%%%

